X:725
T:Lament For The Death of The Reverend Archie
C:Joe Buchanan's Scottish Tome - Page 501.2
I:501 2
Z:Jo Wegstein
R:Reel
L:1/8
M:4/4
K:Gmaj
Bc | "G"d2> d2 {e}dc {Bc}BA | {F}G2 B2 D2> G2 | "C"{EF}E2 {F}(GE) "G"D2> B,2 | "D"{B,}A,6 (Bc) |
"G"d2> d2 {e}dc {Bc}BA | {F}G2 B2 D2> G2 | "C"{EF}E2 {d}cA "D"{G}F2> D2 | "G"{D}G6 :|
B,A, | "G"G,2> B, D2> D2 | {Bc}B2> A2 "C"{F}G2> E2 | "G"{DE}D2 {F}GE {DE}D2> B,2 | "D"{C}G,6 {C}B,A, |
"G"G,2> B, D2> D2 | {Bc}B2> A2 "C"{F}G2> E2 | "G"{DE}D2 {F}GB, "D"{A,C}A,2> B, | "G"{A,}G,6 {C}B,A,
"G"(G,B,)(DG) (Bd)(ga) | {ga}b2> a2 "C"{ga}g2> e2 | "G"{^c}d2 "C"{ga}ge "G"{^c}d2> B2 | "D7"{B}A6 (Bc) |
"G"d2> d2 {de}dc {Bc}BA | {F}G2 B2 D2> G2 | "C"E2 {d}cA {G}FD CA, | "G"{A,}G,6 |]

